_assets/public/images/google-business.svg

<?xml version="1.0" encoding="UTF-8"?>
<svg xmlns="http://www.w3.org/2000/svg" xmlns:xlink="http://www.w3.org/1999/xlink" viewBox="0 0 50 50" width="50px" height="50px">
<g id="surface806099">
<path style=" stroke:none;fill-rule:nonzero;fill:rgb(100%,100%,100%);fill-opacity:1;" d="M 9.285156 4 C 7.488281 4 5.90625 5.207031 5.429688 6.933594 L 2 19.363281 L 2 19.5 C 2 23.078125 4.921875 26 8.5 26 C 10.8125 26 12.84375 24.773438 13.996094 22.945312 C 15.148438 24.777344 17.179688 26 19.5 26 C 21.820312 26 23.851562 24.777344 25.003906 22.945312 C 26.15625 24.773438 28.1875 26 30.5 26 C 32.8125 26 34.847656 24.773438 36 22.941406 C 37.152344 24.773438 39.1875 26 41.5 26 C 45.078125 26 48 23.078125 48 19.5 L 48 19.363281 L 44.570312 6.933594 C 44.09375 5.207031 42.511719 4 40.714844 4 Z M 9.285156 6 L 14.851562 6 L 13.195312 18 L 4.449219 18 L 7.355469 7.46875 C 7.597656 6.597656 8.378906 6 9.285156 6 Z M 26 6 L 33.128906 6 L 34.785156 18 L 26 18 Z M 15 18 L 24 18 L 24 19.5 C 24 19.667969 24.011719 19.835938 24.027344 20 L 15 20 Z M 36.800781 18 L 45.546875 18 L 45.984375 19.582031 C 45.980469 19.722656 45.949219 19.859375 45.933594 20 L 37.050781 20 C 37.03125 19.832031 37 19.671875 37 19.5 L 37 19.433594 Z M 4.066406 20 L 12.949219 20 C 12.699219 22.257812 10.828125 24 8.5 24 C 6.175781 24 4.3125 22.253906 4.066406 20 Z M 26.097656 20 L 34.898438 20 C 34.644531 22.246094 32.820312 24 30.5 24 C 28.179688 24 26.355469 22.246094 26.097656 20 Z M 14 25.972656 C 12.515625 27.234375 10.597656 28 8.5 28 C 6.84375 28 5.304688 27.519531 4 26.699219 L 4 43 C 4 44.652344 5.347656 46 7 46 L 43 46 C 44.652344 46 46 44.652344 46 43 L 46 26.699219 C 44.695312 27.519531 43.15625 28 41.5 28 C 39.402344 28 37.484375 27.234375 36 25.972656 C 34.515625 27.234375 32.597656 28 30.5 28 C 28.402344 28 26.484375 27.234375 25 25.972656 C 23.515625 27.234375 21.597656 28 19.5 28 C 17.402344 28 15.484375 27.234375 14 25.972656 Z M 35.5 29 C 37.546875 29 39.371094 29.953125 40.566406 31.433594 L 39.132812 32.867188 C 38.316406 31.738281 36.996094 31 35.5 31 C 33.019531 31 31 33.019531 31 35.5 C 31 37.980469 33.019531 40 35.5 40 C 37.453125 40 39.101562 38.742188 39.722656 37 L 36 37 L 36 35 L 41.972656 35 C 41.988281 35.164062 42 35.332031 42 35.5 C 42 39.085938 39.085938 42 35.5 42 C 31.914062 42 29 39.085938 29 35.5 C 29 31.914062 31.914062 29 35.5 29 Z M 35.5 29 "/>
</g>
</svg>

<svg xmlns="http://www.w3.org/2000/svg" width="50" height="50"><path d="M9.285 4A4.007 4.007 0 005.43 6.934L2 19.364v.136C2 23.078 4.922 26 8.5 26c2.313 0 4.344-1.227 5.496-3.055A6.496 6.496 0 0019.5 26a6.496 6.496 0 005.504-3.055C26.156 24.773 28.187 26 30.5 26c2.313 0 4.348-1.227 5.5-3.059C37.152 24.773 39.188 26 41.5 26c3.578 0 6.5-2.922 6.5-6.5v-.137l-3.43-12.43A4.007 4.007 0 0040.715 4zm0 2h5.567l-1.657 12H4.45L7.355 7.469A1.995 1.995 0 019.285 6zM26 6h7.129l1.656 12H26zM15 18h9v1.5c0 .168.012.336.027.5H15zm21.8 0h8.747l.437 1.582c-.004.14-.035.277-.05.418H37.05c-.02-.168-.051-.328-.051-.5v-.066zM4.067 20h8.883c-.25 2.258-2.12 4-4.449 4-2.324 0-4.188-1.746-4.434-4zm22.032 0h8.8c-.253 2.246-2.078 4-4.398 4s-4.145-1.754-4.402-4zM14 25.973A8.464 8.464 0 018.5 28 8.422 8.422 0 014 26.7V43c0 1.652 1.348 3 3 3h36c1.652 0 3-1.348 3-3V26.7a8.422 8.422 0 01-4.5 1.3 8.464 8.464 0 01-5.5-2.027A8.464 8.464 0 0130.5 28a8.464 8.464 0 01-5.5-2.027A8.464 8.464 0 0119.5 28a8.464 8.464 0 01-5.5-2.027zM35.5 29a6.5 6.5 0 015.066 2.434l-1.433 1.433A4.475 4.475 0 0035.5 31c-2.48 0-4.5 2.02-4.5 4.5s2.02 4.5 4.5 4.5c1.953 0 3.602-1.258 4.223-3H36v-2h5.973c.015.164.027.332.027.5 0 3.586-2.914 6.5-6.5 6.5a6.505 6.505 0 01-6.5-6.5c0-3.586 2.914-6.5 6.5-6.5zm0 0" fill="#fff"/></svg>
